archdroid-icon-theme/Archdroid-Yellow/actions/scalable/tools-check-spelling.svg

<svg fill="#FFEB3B" viewBox="0 0 48 48" xmlns="http://www.w3.org/2000/svg"><path d="m24.89 32h4.18l-10.21-26h-3.71l-10.22 26h4.18l2.25-6h11.29zm-12.03-10 4.14-11.05 4.14 11.05zm30.31 1.17-16.17 16.17-7.34-7.34-2.83 2.83 10.17 10.17 19-19z" fill="#FFEB3B"/></svg>

<svg fill="#FFEB3B" viewBox="0 0 48 48" xmlns="http://www.w3.org/2000/svg"><path d="M24.89 32h4.18L18.86 6h-3.71L4.93 32h4.18l2.25-6h11.29l2.24 6zM12.86 22L17 10.95 21.14 22h-8.28zm30.31 1.17L27 39.34 19.66 32l-2.83 2.83L27 45l19-19-2.83-2.83z"/></svg>
